icons/1_Primary/ManyVids.svg

<svg xmlns="http://www.w3.org/2000/svg" width="1024" height="1024" fill="none">
   <g clip-path="url(#a)">
      <path fill="#56595B" d="M512 1024c282.77 0 512-229.23 512-512S794.77 0 512 0 0 229.23 0 512s229.23 512 512 512Z"/>
      <path fill="#fff" d="M677.14 443.2a99.648 99.648 0 0 0-127.4-7.85 123.836 123.836 0 0 0-37.47 48.82c-3.71-6.53-6.69-12.35-10.12-17.83-34.25-55.2-99.62-66.66-150.72-26.55-36.71 28.83-54.16 84.91-41.05 131.79a220.534 220.534 0 0 0 52.14 87.62A629.905 629.905 0 0 0 508.8 775.39a9.516 9.516 0 0 0 8.07-.64A662.125 662.125 0 0 0 642.2 679.6a308.51 308.51 0 0 0 62.17-82.6 132.142 132.142 0 0 0-27.23-153.8ZM476.95 664.54c.18-2.22.491-4.427.93-6.61 5.47-21 10.78-42.09 16.68-63a8.149 8.149 0 0 0-2.71-10 29.741 29.741 0 0 1-9.55-34.43 31.489 31.489 0 0 1 28.16-21.5 32.464 32.464 0 0 1 30 17.58 29.818 29.818 0 0 1-5 35.3 13.003 13.003 0 0 0-4 15.43c6.08 20.6 11.21 41.44 16.7 62.19.39 1.4.56 3 .91 4.94l-72.12.1Zm-83.07-398.27a23.286 23.286 0 0 1 19.64-17.51 22.421 22.421 0 0 1 24.56 15.06c3 8.37 1.28 15.57-6.68 26.21 9.13 8.6 18 17.77 27.81 25.88 8 6.67 12.25 6 17.56-2.9 7.48-12.45 14.16-25.41 20.63-38.43.85-1.71-.82-5.58-2.45-7.48a23.192 23.192 0 0 1 2.47-33.95 23 23 0 0 1 32.34 3.34c.271.319.525.653.76 1a22.643 22.643 0 0 1-1.93 29.25 7 7 0 0 0-1.75 9.79l.15.2c6.91 12.18 13.14 24.77 20.5 36.74 5.07 8.26 8.48 8.37 16.52 2.83a75.544 75.544 0 0 0 10.24-8.45c6.09-6 11.88-12.38 17.69-18.51-11.27-15.34-9.23-31 4.57-38.31a23 23 0 0 1 31 9.29 22.411 22.411 0 0 1 2.091 17.052A22.407 22.407 0 0 1 619 290.89c-.42.233-.844.457-1.27.67a14.116 14.116 0 0 0-8.82 11.27c-5.24 21.63-11 43.11-16.35 64.7A11.064 11.064 0 0 1 580.4 377c-45.62 0-91.234.047-136.84.14a11.083 11.083 0 0 1-12.22-9.36c-5.58-22.08-11.54-44-16.93-66.16a11.995 11.995 0 0 0-7.68-9.44 22.841 22.841 0 0 1-12.85-25.91Z"/>
   </g>
   <defs>
      <clipPath id="a">
         <path fill="#fff" d="M0 0h1024v1024H0z"/>
      </clipPath>
   </defs>
</svg>

<svg width="1024" height="1024" viewBox="0 0 1024 1024" fill="none" xmlns="http://www.w3.org/2000/svg">
<g clip-path="url(#clip0_2_2754)">
<path d="M512 1024C794.77 1024 1024 794.77 1024 512C1024 229.23 794.77 0 512 0C229.23 0 0 229.23 0 512C0 794.77 229.23 1024 512 1024Z" fill="#56595B"/>
<path d="M677.14 443.2C660.18 427.189 638.141 417.634 614.862 416.2C591.582 414.765 568.537 421.542 549.74 435.35C533.341 448.211 520.453 465.003 512.27 484.17C508.56 477.64 505.58 471.82 502.15 466.34C467.9 411.14 402.53 399.68 351.43 439.79C314.72 468.62 297.27 524.7 310.38 571.58C320.677 604.458 338.534 634.467 362.52 659.2C405.234 704.985 454.536 744.146 508.8 775.39C510.109 775.883 511.511 776.081 512.906 775.97C514.301 775.86 515.654 775.443 516.87 774.75C562.28 748.128 604.354 716.186 642.2 679.6C667.422 655.76 688.44 627.834 704.37 597C716.765 571.798 720.807 543.301 715.911 515.646C711.014 487.991 697.434 462.615 677.14 443.2ZM476.95 664.54C477.13 662.32 477.441 660.113 477.88 657.93C483.35 636.93 488.66 615.84 494.56 594.93C495.338 593.207 495.493 591.268 494.998 589.444C494.504 587.62 493.391 586.024 491.85 584.93C486.743 581 483.05 575.518 481.328 569.309C479.606 563.1 479.947 556.499 482.3 550.5C484.295 544.505 488.047 539.248 493.069 535.414C498.091 531.58 504.151 529.345 510.46 529C516.613 528.783 522.7 530.321 528.012 533.434C533.324 536.547 537.641 541.106 540.46 546.58C543.54 552.217 544.717 558.699 543.816 565.059C542.915 571.42 539.984 577.32 535.46 581.88C533.175 583.643 531.542 586.116 530.817 588.91C530.093 591.704 530.319 594.659 531.46 597.31C537.54 617.91 542.67 638.75 548.16 659.5C548.55 660.9 548.72 662.5 549.07 664.44L476.95 664.54ZM393.88 266.27C395.007 261.712 397.485 257.6 400.99 254.476C404.495 251.351 408.863 249.359 413.52 248.76C418.73 247.985 424.048 249.069 428.539 251.823C433.03 254.577 436.408 258.824 438.08 263.82C441.08 272.19 439.36 279.39 431.4 290.03C440.53 298.63 449.4 307.8 459.21 315.91C467.21 322.58 471.46 321.91 476.77 313.01C484.25 300.56 490.93 287.6 497.4 274.58C498.25 272.87 496.58 269 494.95 267.1C490.753 262.607 488.512 256.63 488.72 250.485C488.928 244.34 491.568 238.529 496.06 234.33C496.5 233.917 496.953 233.523 497.42 233.15C502.152 229.307 508.217 227.5 514.281 228.126C520.345 228.753 525.913 231.761 529.76 236.49C530.031 236.809 530.285 237.143 530.52 237.49C533.719 241.802 535.281 247.112 534.928 252.469C534.574 257.827 532.328 262.885 528.59 266.74C527.829 267.265 527.179 267.936 526.679 268.713C526.178 269.491 525.837 270.36 525.674 271.27C525.511 272.18 525.53 273.114 525.731 274.017C525.931 274.919 526.308 275.774 526.84 276.53L526.99 276.73C533.9 288.91 540.13 301.5 547.49 313.47C552.56 321.73 555.97 321.84 564.01 316.3C567.665 313.789 571.091 310.962 574.25 307.85C580.34 301.85 586.13 295.47 591.94 289.34C580.67 274 582.71 258.34 596.51 251.03C601.859 248.182 608.115 247.561 613.92 249.3C619.725 251.04 624.608 255 627.51 260.32C628.963 262.885 629.896 265.711 630.255 268.637C630.614 271.563 630.392 274.532 629.601 277.372C628.811 280.212 627.467 282.868 625.648 285.187C623.829 287.507 621.569 289.445 619 290.89C618.58 291.123 618.156 291.347 617.73 291.56C615.389 292.482 613.337 294.013 611.786 295.995C610.236 297.976 609.242 300.336 608.91 302.83C603.67 324.46 597.91 345.94 592.56 367.53C592.163 370.38 590.671 372.964 588.401 374.732C586.131 376.5 583.26 377.314 580.4 377C534.78 377 489.166 377.047 443.56 377.14C440.707 377.467 437.839 376.674 435.559 374.928C433.279 373.182 431.767 370.619 431.34 367.78C425.76 345.7 419.8 323.78 414.41 301.62C414.088 299.505 413.206 297.514 411.855 295.854C410.505 294.194 408.735 292.926 406.73 292.18C401.927 290.007 398.023 286.24 395.681 281.518C393.339 276.795 392.703 271.408 393.88 266.27Z" fill="white"/>
</g>
<defs>
<clipPath id="clip0_2_2754">
<rect width="1024" height="1024" fill="white"/>
</clipPath>
</defs>
</svg>
